X:1
T:The Spirit and the Bride Say Come
T:The Spirit and the Bride Say Come
T:Isaac Hickman Meredith
T:Grant Colfax Tullar, 1899
T:Public Domain Courtesy of the Cyber Hymnal™
T:Public Domain Courtesy of the Cyber Hymnal™
C:Isaac Hickman Meredith
Z:Public Domain
Z:Courtesy of the Cyber Hymnal™
%%score ( 1 2 ) ( 3 4 )
L:1/8
Q:1/4=104
M:6/8
K:Eb
V:1 treble 
V:2 treble 
V:3 bass 
V:4 bass 
V:1
 [GB] | [GB]2 [GB] ([EG][FA])[Ac] | [GB]3 [EG]2 [EG] | [DB]2 [DB] [DF]2 [FA] | [EG]3- [EG]2 [GB] | %5
w: 1.~A|glor- ious in- * vi-|ta- tion Now|calls you to the|feast; * Each|
w: 2.~That|bless- èd in- * vi-|ta- tion! Oh,|hear to- day and|heed; * The|
w: 3.~Re-|peat the in- * vi-|ta- tion! Pass|on the bless- èd|news; * Let|
 [GB]2 [GB] ([EG][FA])[Ac] | [GB]3 [EG]2 [EG] | [DF]2 [FB] [F=A]2 [Ec] | [DB]3- [DB]2 [DB] | %9
w: soul is now * in-|vit- ed, The|great- est and the|least. * Come,|
w: Spir- it now * is|call- ing, Why|long- er dwell in|need? * Thy|
w: none for- sake * His|mer- cy, Or|par- don now re-|fuse. * ’Tis|
 [DB]2 [DB] ([DF][EG])[FA] | [Ac]3 [GB]2 [GB] | [Ge]2 [Ge] [Fd]2 [Ec] | [DB]3- [DB]2 [FA] | %13
w: all ye hea- * vy|la- den, With|sor- row or with|care— * To-|
w: soul to- day * is|faint- ing, For|Christ the liv- ing|bread; * Ac-|
w: Je- sus that * is|call- ing— All|things are rea- dy,|come— * The|
 [EG]2 [FA] [GB]2 [Ge] | [Ae]3 !fermata![Ac]2 [Ac] | [GB]2 [GB] [EG]2 [DF] | E3- E2 || %17
w: day you are in-|vit- ed, Your|bur- dens Christ will|bear. *|
w: cept the in- vi-|ta- tion, Come|while the feast is|spread. *|
w: Spir- it will di-|rect you, The|Bride will wel- come|home. *|
"^Refrain" [GB] | [GB]4 [Ac][GB] | [EG]3- [EG]2 [EG] | ([FA]4 [GB])[FA] | [DF]3- [DF]2 [DF] | %22
w: |||||
w: The|Spir- it says|come, * The|Bride * says|come; * Let|
w: |||||
 E2 E [DF][CE][DF] | [EG]3- [EG]2 [EG] | [DA]2 [DA] ([FA][EG])[FA] | [GB]3- [GB]2 [EB] | %26
w: ||||
w: him that he- ar- eth|come; * Let|him that thirst- * eth|come, * And|
w: ||||
 [Ec]2 [Ec] (dc)[Ad] | [Ae]3 [Fd]2 [Ec] | [EB][Ec][EB] [FA][GB][FA] | ([EG]3 [CF]3) | %30
w: ||||
w: who- so- ev- * er|will Let him|take of the wa- ter of|Life *|
w: ||||
 ([B,E]3 [B,D]3) | [B,E]3- [B,E]2 |] %32
w: ||
w: free- *|ly. *|
w: ||
V:2
 x | x6 | x6 | x6 | x6 | x6 | x6 | x6 | x6 | x6 | x6 | x6 | x6 | x6 | x6 | x6 | E3- E2 || x | x6 | %19
 x6 | x6 | x6 | E2 E x3 | x6 | x6 | x6 | x3 A2 x | x6 | x6 | x6 | x6 | x5 |] %32
V:3
 [E,E] | [E,E]2 [E,E] [E,B,]2 [E,E] | [E,E]3 [E,B,]2 [E,B,] | [B,,B,]2 [B,,B,] [B,,B,]2 [B,,B,] | %4
w: ~|~ ~ ~ ~|~ ~ ~|~ ~ ~ ~|
 [E,B,]3- [E,B,]2 [E,E] | [E,E]2 [E,E] [E,B,]2 [E,E] | [E,E]3 [E,B,]2 [E,B,] | %7
w: ~ * ~|~ ~ ~ ~|~ ~ ~|
 [F,B,]2 [F,D] [F,C]2 [F,=A,] | [B,,B,]3- [B,,B,]2 [B,,F,] | [B,,F,]2 [B,,F,] [B,,B,]2 [B,,B,] | %10
w: ~ ~ ~ ~|~ * ~|~ ~ ~ ~|
 [E,B,]3 [E,B,]2 [E,B,] | [C,C]2 [C,C] [F,B,]2 [F,=A,] | [B,,B,]3- [B,,B,]2 [B,,B,] | %13
w: ~ ~ ~|~ ~ ~ ~|~ * ~|
 [E,B,]2 [E,B,] [E,E]2 [E,_D] | [A,C]3 !fermata![A,E]2 [A,E] | [B,E]2 [B,E] [B,,B,]2 [B,,A,] | %16
w: ~ ~ ~ ~|~ ~ ~|~ ~ ~ ~|
 [E,G,]3- [E,G,]2 || z | z2 [E,E] [E,E][E,E][E,E] | [E,B,]2 [E,B,] [E,B,]2 z | %20
w: ~ *||The Spir- it says|come, says come,|
 z2 [B,,B,] [B,,B,]2 [B,,B,] | [B,,B,]2 [B,,B,] [B,,B,]2 [B,,B,] | %22
w: The Bride says|come, says come; ~|
 [C,G,]2 [C,G,] [B,,B,][B,,B,][B,,B,] | [E,B,]3- [E,B,]2 [E,B,] | [F,B,]2 [F,B,] [B,,B,]2 [B,,B,] | %25
w: ~ ~ ~ ~ ~|~ * ~|~ ~ ~ ~|
 [E,B,]3- [E,B,]2 [G,B,] | A,2 A, [F,B,]2 [B,,D] | [C,C]3 [G,,=B,]2 [A,,A,] | %28
w: ~ * ~|~ ~ ~ ~|~ ~ ~|
 [B,,G,]3 [B,,B,]2 [B,,B,] | [E,B,][E,B,][E,B,] [A,,A,]3 | (G,3 F,G,A,) | [E,G,]3- [E,G,]2 |] %32
w: take of the|wa- ter of life|||
V:4
 x | x6 | x6 | x6 | x6 | x6 | x6 | x6 | x6 | x6 | x6 | x6 | x6 | x6 | x6 | x6 | x5 || x | x6 | x6 | %20
 x6 | x6 | x6 | x6 | x6 | x6 | A,2 A, x3 | x6 | x6 | x6 | B,,6 | x5 |] %32

